!!!COM: Copland, Aaron
!!!OTL: Inscape for Orchestra
!!!OMV:
!!!example: 725
!!!work: Cop-43
**kern	**dynam	**kern	**dynam	**kern	**dynam	**kern	**dynam	**kern	**dynam	**kern	**dynam	**kern	**dynam	**kern	**dynam	**kern	**dynam	**kern	**dynam	**kern	**dynam	**kern	**dynam	**kern	**dynam
*part13	*part13	*part12	*part12	*part11	*part11	*part10	*part10	*part9	*part9	*part8	*part8	*part7	*part7	*part6	*part6	*part5	*part5	*part4	*part4	*part3	*part3	*part2	*part2	*part1	*part1
*staff13	*	*staff12	*	*staff11	*	*staff10	*	*staff9	*	*staff8	*	*staff7	*	*staff6	*	*staff5	*	*staff4	*	*staff3	*	*staff2	*	*staff1	*
*I"Contrabass	*	*I"Violoncello	*	*I"Viola	*	*I"Violin II	*	*I"Violin I	*	*I"Violin I	*	*I"Violin I	*	*I"Violin I	*	*I"Violin	*	*I"Vibraphone	*	*I"Oboe	*	*I"Flute	*	*I"Piccolo	*
*I'Cb.	*	*I'Vc.	*	*I'Vla.	*	*I'Vln. II	*	*I'Vln. I	*	*I'Vln. I	*	*I'Vln. I	*	*I'Vln. I	*	*I'Vln.	*	*I'Vib.	*	*I'Ob.	*	*I'Fl.	*	*I'Picc.	*
*clefF4	*	*clefF4	*	*clefG2	*	*clefG2	*	*clefG2	*	*clefG2	*	*clefG2	*	*clefG2	*	*clefG2	*	*clefG2	*	*clefG2	*	*clefG2	*	*clefG2	*
*k[]	*	*k[]	*	*k[]	*	*k[]	*	*k[]	*	*k[]	*	*k[]	*	*k[]	*	*k[]	*	*k[]	*	*k[]	*	*k[]	*	*k[]	*
*C:	*	*C:	*	*C:	*	*C:	*	*C:	*	*C:	*	*C:	*	*C:	*	*C:	*	*C:	*	*C:	*	*C:	*	*C:	*
*M4/4	*	*M4/4	*	*M4/4	*	*M4/4	*	*M4/4	*	*M4/4	*	*M4/4	*	*M4/4	*	*M4/4	*	*M4/4	*	*M4/4	*	*M4/4	*	*M4/4	*
*MM121	*	*MM121	*	*MM121	*	*MM121	*	*MM121	*	*MM121	*	*MM121	*	*MM121	*	*MM121	*	*MM121	*	*MM121	*	*MM121	*	*MM121	*
=207	=207	=207	=207	=207	=207	=207	=207	=207	=207	=207	=207	=207	=207	=207	=207	=207	=207	=207	=207	=207	=207	=207	=207	=207	=207
1r	.	[2.Fn~ [2.d	mp	[2.een~ [2.aa-X	mp	[2.g~ [2.ee-X	mp	1r	.	8ee	>	4r	.	4r	.	1r	.	4r	.	4.ee	>	1r	.	4r	.
.	.	.	.	.	.	.	.	.	.	8r	]	.	.	.	.	.	.	.	.	.	.	.	.	.	.
.	.	.	.	.	.	.	.	.	.	4r	.	8r	.	8r	.	.	.	8r	.	.	.	.	.	8r	.
.	.	.	.	.	.	.	.	.	.	.	.	[8cc [8ff	p	[8ccc [8fff	p	.	.	[8cc [8ccc	p	8r	]	.	.	[8cccc	p
.	.	.	.	.	.	.	.	.	.	2r	.	2cc_ 2ff_	.	2ccc_ 2fff_	.	.	.	2cc_ 2ccc_	.	2r	.	.	.	2cccc]	.
.	.	4F~] 4d]	.	4ee~] 4aa-]	.	4g~] 4ee-]	.	.	.	.	.	.	.	.	.	.	.	.	.	.	.	.	.	.	.
=208	=208	=208	=208	=208	=208	=208	=208	=208	=208	=208	=208	=208	=208	=208	=208	=208	=208	=208	=208	=208	=208	=208	=208	=208	=208
*M3/4	*	*M3/4	*	*M3/4	*	*M3/4	*	*M3/4	*	*M3/4	*	*M3/4	*	*M3/4	*	*M3/4	*	*M3/4	*	*M3/4	*	*M3/4	*	*M3/4	*
2.r	.	[2C#X~ [2A	.	[2f#X~ [2dd	.	[2en~ [2b	.	2.r	.	2.r	.	8cc] 8ff]	.	8ccc] 8fff]	.	2.r	.	8cc] 8ccc]	.	2.r	.	2.r	.	4r	.
.	.	.	.	.	.	.	.	.	.	.	.	8r	.	8r	.	.	.	8r	.	.	.	.	.	.	.
.	.	.	.	.	.	.	.	.	.	.	.	[2cc [2ff	.	[2ccc [2fff	.	.	.	[2cc [2ccc	.	.	.	.	.	2cccc	.
.	.	4C#~] 4A]	.	4f#~] 4dd]	.	4e~] 4b]	.	.	.	.	.	.	.	.	.	.	.	.	.	.	.	.	.	.	.
=209	=209	=209	=209	=209	=209	=209	=209	=209	=209	=209	=209	=209	=209	=209	=209	=209	=209	=209	=209	=209	=209	=209	=209	=209	=209
*M4/4	*	*M4/4	*	*M4/4	*	*M4/4	*	*M4/4	*	*M4/4	*	*M4/4	*	*M4/4	*	*M4/4	*	*M4/4	*	*M4/4	*	*M4/4	*	*M4/4	*
1r	.	[2.A#X~ [2.d	>	[2.cc~o [2.gg	>	[2.cc#X~ [2.ff	>	1r	.	1r	.	4.cc] 4.ff]	.	4.ccc] 4.fff]	.	2r	.	4.cc] 4.ccc]	.	1r	.	1r	.	4r	.
.	.	.	.	.	.	.	.	.	.	.	.	.	.	.	.	.	.	.	.	.	.	.	.	8r	.
.	.	.	.	.	.	.	.	.	.	.	.	[8cc [8ff	.	[8ccc [8fff	.	.	.	[8cc [8ccc	.	.	.	.	.	[8cccc	.
.	.	.	.	.	.	.	.	.	.	.	.	2cc_ 2ff_	.	2ccc_ 2fff_	.	4r	.	2cc_ 2ccc_	.	.	.	.	.	2cccc]	.
.	.	4A#~] 4d]	]]	4cc~o] 4gg]	]]	4cc#~] 4ff]	]]	.	.	.	.	.	.	.	.	(4ggg#X	mp	.	.	.	.	.	.	.	.
=210	=210	=210	=210	=210	=210	=210	=210	=210	=210	=210	=210	=210	=210	=210	=210	=210	=210	=210	=210	=210	=210	=210	=210	=210	=210
*M3/4	*	*M3/4	*	*M3/4	*	*M3/4	*	*M3/4	*	*M3/4	*	*M3/4	*	*M3/4	*	*M3/4	*	*M3/4	*	*M3/4	*	*M3/4	*	*M3/4	*
2.r	.	[2G#X~ [2e	]	[2dd~ [2ffn	]	[2dd#X~ [2bb	]	2.r	.	2.r	.	4cc] 4ff]	.	4ccc] 4fff]	.	4fff#X)	.	4cc] 4ccc]	.	2.r	.	2.r	.	4r	.
.	.	.	.	.	.	.	.	.	.	.	.	[2cc [2ff	.	[2ccc [2fff	.	2eee	.	[2cc [2ccc	.	.	.	.	.	2cccc	.
.	.	4G#~] 4e]	.	4dd~] 4ff]	.	4dd#~] 4bb]	.	.	.	.	.	.	.	.	.	.	.	.	.	.	.	.	.	.	.
*	*	*clefC4	*	*clefC3	*	*	*	*	*	*	*	*	*	*	*	*	*	*	*	*	*	*	*	*	*
=211	=211	=211	=211	=211	=211	=211	=211	=211	=211	=211	=211	=211	=211	=211	=211	=211	=211	=211	=211	=211	=211	=211	=211	=211	=211
2.r	.	[2d#X~ [2cc#X	.	[2b~ [2dd	.	[2aa#X~ [2fff	.	2.r	.	2.r	.	4cc] 4ff]	.	4ccc] 4fff]	.	(4.fffn	.	4cc] 4ccc]	.	2.r	.	2.r	.	4r	.
.	.	.	.	.	.	.	.	.	.	.	.	[2cc [2ff	.	[2ccc [2fff	.	.	.	[2cc [2ccc	.	.	.	.	.	2cccc	.
.	.	.	.	.	.	.	.	.	.	.	.	.	.	.	.	4.aan)	.	.	.	.	.	.	.	.	.
.	.	4d#~] 4cc#]	.	4b~] 4dd]	.	4aa#~] 4fff]	.	.	.	.	.	.	.	.	.	.	.	.	.	.	.	.	.	.	.
=212	=212	=212	=212	=212	=212	=212	=212	=212	=212	=212	=212	=212	=212	=212	=212	=212	=212	=212	=212	=212	=212	=212	=212	=212	=212
2.r	.	[2fn~ [2g#X	.	[2f~ [2a	.	[2ggn~ [2eee	.	2.r	.	2.r	.	4.cc] 4.ff]	.	4.ccc] 4.fff]	.	2.cc#X	.	4.cc] 4.ccc]	.	2.r	.	2.r	.	4r	.
.	.	.	.	.	.	.	.	.	.	.	.	.	.	.	.	.	.	.	.	.	.	.	.	8r	.
.	.	.	.	.	.	.	.	.	.	.	.	[4.cc [4.ff	.	[4.ccc [4.fff	.	.	.	[4.cc [4.ccc	.	.	.	.	.	4.cccc	.
.	.	4f~] 4g#]	.	4f~] 4a]	.	4gg~] 4eee]	.	.	.	.	.	.	.	.	.	.	.	.	.	.	.	.	.	.	.
=213	=213	=213	=213	=213	=213	=213	=213	=213	=213	=213	=213	=213	=213	=213	=213	=213	=213	=213	=213	=213	=213	=213	=213	=213	=213
!!pagebreak:original
2.r	.	[2f#X~	p	[2dd~o	p	[2ffn~	p	2.r	.	[2bb-X~	p	4cc] 4ff]	.	4ccc] 4fff]	.	2.r	.	4cc] 4ccc]	.	2.r	.	2.r	.	4r	.
.	.	.	.	.	.	.	.	.	.	.	.	[2cc [2ff	.	[2ccc [2fff	.	.	.	[2cc [2ccc	.	.	.	.	.	2cccc	.
.	.	4f#~]	.	4dd~o]	.	4ff~]	.	.	.	4bb-~]	.	.	.	.	.	.	.	.	.	.	.	.	.	.	.
=214	=214	=214	=214	=214	=214	=214	=214	=214	=214	=214	=214	=214	=214	=214	=214	=214	=214	=214	=214	=214	=214	=214	=214	=214	=214
2.r	.	[2a~o	.	[2cc#X~	.	[2gg#X~	.	2.r	.	[2bbn~	.	8cc] 8ff]	.	8ccc] 8fff]	.	4r	.	8cc] 8ccc]	.	2.r	.	2.r	.	8r	.
.	.	.	.	.	.	.	.	.	.	.	.	[4.cc [4.ff	.	[4.ccc [4.fff	.	.	.	[4.cc [4.ccc	.	.	.	.	.	4.cccc	.
.	.	.	.	.	.	.	.	.	.	.	.	.	.	.	.	4r	.	.	.	.	.	.	.	.	.
.	.	4a~o]	.	4cc#~]	.	4gg#~]	.	.	.	4bb~]	.	8ccL] 8ff]	.	8cccL] 8fff]	.	(4eee	.	8ccL] 8ccc]	.	.	.	.	.	8r	.
.	.	.	.	.	.	.	.	.	.	.	.	[8ccJ [8ff	.	[8cccJ [8fff	.	.	.	[8ccJ [8ccc	.	.	.	.	.	[8cccc	.
=215	=215	=215	=215	=215	=215	=215	=215	=215	=215	=215	=215	=215	=215	=215	=215	=215	=215	=215	=215	=215	=215	=215	=215	=215	=215
2.r	.	[2a#X~	.	[2dd~	.	[2aa~	.	2.r	.	[2fff~	.	4cc] 4ff]	.	4ccc] 4fff]	.	4ddd)	.	4cc] 4ccc]	.	2.r	.	2.r	.	8cccc]	.
.	.	.	.	.	.	.	.	.	.	.	.	.	.	.	.	.	.	.	.	.	.	.	.	8r	.
.	.	.	.	.	.	.	.	.	.	.	.	[2cc [2ff	.	[2ccc [2fff	.	2ccc	.	[2cc [2ccc	.	.	.	.	.	2cccc	.
.	.	4a#~]	.	4dd~]	.	4aa~]	.	.	.	4fff~]	.	.	.	.	.	.	.	.	.	.	.	.	.	.	.
=216	=216	=216	=216	=216	=216	=216	=216	=216	=216	=216	=216	=216	=216	=216	=216	=216	=216	=216	=216	=216	=216	=216	=216	=216	=216
*	*	*	*	*	*	*	*	*	*	*8va	*	*	*	*	*	*	*	*	*	*	*	*	*	*	*
4r	.	[2g#X~	.	[2ee~	.	[2ddd#X~	.	2.r	.	[2bbb~	.	4.cc] 4.ff]	.	4.ccc] 4.fff]	.	4ccc#X	.	4.cc] 4.ccc]	.	2.r	.	2.r	.	4r	.
4r	.	.	.	.	.	.	.	.	.	.	.	.	.	.	.	2ff	]]	.	.	.	.	.	.	8r	.
.	.	.	.	.	.	.	.	.	.	.	.	4.cc 4.ff	.	4.ccc 4.fff	.	.	.	[4.cc [4.ccc	.	.	.	.	.	4.cccc	.
4GG#X	mp	4g#~]	.	4ee~]	.	4ddd#~]	.	.	.	4bbb~]	.	.	.	.	.	.	.	.	.	.	.	.	.	.	.
*	*	*	*	*	*	*	*	*	*	*X8va	*	*	*	*	*	*	*	*	*	*	*	*	*	*	*
=217	=217	=217	=217	=217	=217	=217	=217	=217	=217	=217	=217	=217	=217	=217	=217	=217	=217	=217	=217	=217	=217	=217	=217	=217	=217
*M4/4	*	*M4/4	*	*M4/4	*	*M4/4	*	*M4/4	*	*M4/4	*	*M4/4	*	*M4/4	*	*M4/4	*	*M4/4	*	*M4/4	*	*M4/4	*	*M4/4	*
4AA#X	.	2.d#X	pp	2.b 2.ddn	pp	2.aa#X 2.fff#X	pp	2.cc#X 2.ff#X	pp	2.ff#X 2.bb	pp	2cc 2ff	.	2ccc 2fff	.	[1b	]	2cc] 2ccc]	.	1r	.	1r	.	2r	.
4BB#X	.	.	.	.	.	.	.	.	.	.	.	.	.	.	.	.	.	.	.	.	.	.	.	.	.
4C#X	.	.	.	.	.	.	.	.	.	.	.	[2cc [2ff	pp	[2ccc [2fff	pp	.	.	[2cc [2ccc	pp	.	.	.	.	2cccc	pp
4BBn	.	[4d#	.	[4b [4dd	.	[4aa# [4fff#	.	[4cc# [4ff#	.	[4ff# [4bb	.	.	.	.	.	.	.	.	.	.	.	.	.	.	.
*clefC4	*	*	*	*	*	*	*	*	*	*	*	*	*	*	*	*	*	*	*	*	*	*	*	*	*
=218	=218	=218	=218	=218	=218	=218	=218	=218	=218	=218	=218	=218	=218	=218	=218	=218	=218	=218	=218	=218	=218	=218	=218	=218	=218
2Go	.	2.d#]	.	2.b] 2.dd]	.	2.aa#] 2.fff#]	.	2.cc#] 2.ff#]	.	2.ff#] 2.bb]	.	4.cc] 4.ff]	.	4.ccc] 4.fff]	.	1b_	.	4.cc] 4.ccc]	.	1r	.	1r	.	4r	.
.	.	.	.	.	.	.	.	.	.	.	.	.	.	.	.	.	.	.	.	.	.	.	.	8r	.
.	.	.	.	.	.	.	.	.	.	.	.	[8cc [8ff	ppp	[8ccc [8fff	ppp	.	.	[8cc [8ccc	ppp	.	.	.	.	[8cccc	>
[2G#X [2d#X	.	.	.	.	.	.	.	.	.	.	.	2cc] 2ff]	.	2ccc] 2fff]	.	.	.	2cc] 2ccc]	.	.	.	.	.	2cccc]	]]
.	.	[4d#X	ppp	[4b [4dd	ppp	[4aa#X [4fff#X	ppp	[4cc#X [4ff#X	ppp	[4ff#X [4bb	ppp	.	.	.	.	.	.	.	.	.	.	.	.	.	.
=219	=219	=219	=219	=219	=219	=219	=219	=219	=219	=219	=219	=219	=219	=219	=219	=219	=219	=219	=219	=219	=219	=219	=219	=219	=219
2.G#;_ 2.d#_	>	2.d#;_	>	2.b;_ 2.dd_	>	2.aa#;_ 2.fff#_	>	2.cc#;_ 2.ff#_	>	2.ff#;_ 2.bb_	>	[2.cc; [2.ff	>	[2.ccc; [2.fff	>	2.b;_	>	[2.cc; [2.ccc	.	1r;	.	2r;	.	1r;	]
.	.	.	.	.	.	.	.	.	.	.	.	.	.	.	.	.	.	.	.	.	.	4r	.	.	.
8G#] 8d#]	.	8d#]	.	8b] 8dd]	.	8aa#] 8fff#]	.	8cc#] 8ff#]	.	8ff#] 8bb]	.	8cc] 8ff]	.	8ccc] 8fff]	.	8b]	]	8cc] 8ccc]	.	.	.	(8ff#XL	mp	.	.
8r	]]	8r	]]	8r	]]	8r	]]	8r	]]	8r	]]	8r	]]	8r	]]	8r	.	8r	.	.	.	8aa#XJ)	.	.	.
==	==	==	==	==	==	==	==	==	==	==	==	==	==	==	==	==	==	==	==	==	==	==	==	==	==
*-	*-	*-	*-	*-	*-	*-	*-	*-	*-	*-	*-	*-	*-	*-	*-	*-	*-	*-	*-	*-	*-	*-	*-	*-	*-
!!!CDT: 1900/11/14-1990/12/02
!!!CBL: Brooklyn, United States
!!!CDL: North Tarrytown, United States
!!!CNT: American
!!!AGN: Orchestral; Symphonic
!!!MCN: Bernstein, Leonard
!!!MDT: 1967/09/13
!!!MGN: New York Philharmonic Orchestra
!!!MLC: Ann Arbor, Michigan, United States of America
!!!MPD: 1967
!!!MPN:
!!!ODT: 1967
!!!PDT: 1968
!!!excerpt-start-measure: 207
!!!excerpt-end-measure: 219
!!!excerpt-start-time: 9:30
!!!excerpt-end-time: 10:24
!!!system-decoration: [(s1,s2,s3)][(s4)][(s5,s6,s7,s8,s9,s10,s11,s12,s13)]
!!!ONB: Converted from MusicXML on 2020/01/20 and edited by Craig Stuart Sapp
